X:1
T:Quare tristis es anima mea
T:Constantijn Huygens
T:Quare tristis es anima mea
T:Psalmus 42:6,7a
C:Constantijn Huygens
%%score 1 { ( 2 4 ) | 3 }
L:1/8
Q:1/4=60
M:4/4
K:Bb
V:1 treble nm="Soprano" snm="S"
V:2 treble nm="Organ" snm="Org."
V:4 treble 
V:3 bass 
V:1
 B4- BBAG | F2 B4 A2 | z2 d3 dcB | A2 f3 f=ed | c2 c4 BA | GG A2 c2 F2 | F2 FG =E3 F | F8 :: %8
w: Qua- * re tris- tis|es, qua- re,|qua- re tris- tis|es, qua- re tris- tis|es, a- ni- ma|me- a? et qua- re,|qua- re con- tur- bas|me?|
[M:3/4] c4 f2 |[M:4/4] e2 cf f2 =e2 | f4 AAAB | c2 c>c c>c cc | z2 cc _d4- | dBBB BBee | f4- feed | %15
w: Spe- ra,|spe- ra in De- um,|_ quo- ni- am ad-|huc con- fi- te- bor il- li,|sa- lu- ta-|* re vul- tus me- i, sa- lu-|ta- * re vul- tus|
 dd d4 cc | c8 | B8 :| %18
w: me- i, et De- us|me-|us.|
V:2
 [DF]6 [CF]2 | [B,DF]4 [CF]4 | [DFB]4 [C=EG]4 | [CFA]4 [CG]4 | [CFA]4 [DFB]4 | [C=EG]2 [CF]6 | %6
 [B,D]4 C2- [B,C-]2 | [A,C]8 ::[M:3/4] [FA]4- [FAd]2 |[M:4/4] B2 c4 B2 | [FAc]4 [CF]4 | [CFA]8 | %12
 [CF_A]4 [_DF]4- | [DF]4 [EG]4 | [Fc]8 | [FB]6 [FA]2 | [C-F-B]4 [CFA]4 | [DFB]8 :| %18
V:3
 B,6 C2 | D4 B,,2 C,2 | D,4 =E,4 | F,4 G,4 | A,4 B,4 | C2 C,2 A,,4 | B,,2 G,,2 C,4 | F,8 :: %8
[M:3/4] F,4 D,2 |[M:4/4] E,2 F,2 C,4 | F,8 | F,8 | F,4 B,,4- | B,,4 E,2 CB, | A,8 | B,4 D,2 E,2 | %16
 F,8 | B,,8 :| %18
V:4
 x8 | x8 | x8 | x8 | x8 | x8 | x8 | x8 ::[M:3/4] x6 |[M:4/4] G2 [FA]2 G4 | x8 | x8 | x8 | x8 | x8 | %15
 x8 | x8 | x8 :| %18

